src/assets/icons/question_mark.svg

<svg width="20" height="21" viewBox="0 0 20 21" fill="none" xmlns="http://www.w3.org/2000/svg">
    <path d="M1.02317 17.9214C0.737968 17.9214 0.495544 17.8465 0.2959 17.7003C0.0998217 17.5575 0 17.3841 0 17.1903L0.0213904 3.6361C0.0213904 3.44227 0.121212 3.26885 0.320856 3.12263C0.520499 2.97641 0.762923 2.905 1.04813 2.905H2.90196L2.90553 1.53803C2.90553 1.3272 3.00535 1.14697 3.20499 1.00076C3.40107 0.854536 3.6328 0.783127 3.89661 0.783127L16.1711 0.793328C16.4349 0.793328 16.6667 0.868138 16.8663 1.01436C17.066 1.16058 17.1622 1.3408 17.1622 1.55163L17.1586 2.91861H18.9768C19.262 2.91861 19.5045 2.99341 19.7041 3.13963C19.9037 3.28585 20 3.45587 20 3.6531L19.9822 17.2073C19.9822 17.4011 19.8824 17.5745 19.6827 17.7207C19.4831 17.867 19.2406 17.9384 18.9554 17.9384H17.1373L17.1337 19.3291C17.1337 19.523 17.0339 19.6964 16.8342 19.8426C16.6346 19.9888 16.4029 20.0602 16.139 20.0602L3.86453 20.05C3.60071 20.05 3.36898 19.9752 3.16934 19.829C2.97326 19.6828 2.87344 19.5128 2.87344 19.3155L2.87701 17.9248L1.02317 17.9214Z" fill="#2EC6F5"/>
    <path d="M11.8636 9.29868L11.8671 7.56106L7.12946 7.55426V8.30915C7.12946 8.41457 7.08301 8.50638 6.99369 8.58799C6.90436 8.6662 6.79718 8.70701 6.6757 8.70701H5.46805C5.33585 8.70701 5.22509 8.6662 5.13577 8.58799C5.04645 8.50978 5 8.41457 5 8.30915V7.22101C5 7.1156 5.04645 7.02379 5.13577 6.94218C5.22509 6.86397 5.33585 6.82316 5.46805 6.82316H6.40416V6.00025C6.40416 5.89484 6.44703 5.80303 6.53278 5.72142C6.61853 5.64321 6.72572 5.6024 6.85792 5.6024L12.3352 5.6092C12.4567 5.6092 12.5603 5.65001 12.6532 5.72822C12.7425 5.80643 12.789 5.90164 12.789 6.00705V6.76195H13.6322C13.7644 6.76195 13.8751 6.80276 13.9644 6.88097C14.0538 6.95918 14.1002 7.05439 14.1002 7.1598L14.0966 9.53331C14.0966 9.64893 14.0502 9.74414 13.9609 9.81895C13.868 9.89716 13.7572 9.93457 13.6286 9.93457H12.6925V10.7575C12.6925 10.8731 12.6496 10.9683 12.5639 11.0499C12.4781 11.1281 12.3709 11.1689 12.2387 11.1689H11.1669L11.1633 13.0256C11.1633 13.1412 11.1168 13.2364 11.0275 13.3112C10.9382 13.386 10.831 13.4234 10.7095 13.4234H9.41255C9.28035 13.4234 9.17317 13.386 9.08742 13.3112C9.00167 13.2364 8.95879 13.1412 8.95879 13.0256L8.96236 10.9173C8.96236 10.8119 9.00524 10.7201 9.09099 10.6385C9.17674 10.5602 9.28393 10.5194 9.41613 10.5194H10.2593V9.69653C10.2593 9.58092 10.3058 9.48571 10.3951 9.4109C10.4844 9.33609 10.5952 9.29868 10.7274 9.29868H11.8636ZM9.33752 14.0015C9.25534 14.0015 9.19103 14.0219 9.14101 14.0661C9.09099 14.1103 9.06598 14.1681 9.06598 14.2395L9.06241 15.6201C9.06241 15.6915 9.08742 15.7493 9.13744 15.7935C9.18746 15.8377 9.25177 15.8615 9.33395 15.8615L10.9025 15.8649C10.9846 15.8649 11.0489 15.8445 11.099 15.8003C11.149 15.7561 11.174 15.6983 11.174 15.6269L11.1776 14.2463C11.1776 14.1749 11.1526 14.1171 11.1025 14.0729C11.0525 14.0287 10.9882 14.0049 10.906 14.0049L9.33752 14.0015Z" fill="white"/>
</svg>

<svg width="20" height="21" fill="none" xmlns="http://www.w3.org/2000/svg"><path d="M1.023 17.921c-.285 0-.527-.075-.727-.22C.1 17.557 0 17.383 0 17.19L.021 3.635c0-.194.1-.367.3-.513.2-.147.442-.218.727-.218h1.854l.004-1.367c0-.21.1-.391.299-.537.196-.146.428-.218.692-.218l12.274.01c.264 0 .496.075.695.221.2.147.296.327.296.538l-.003 1.367h1.818c.285 0 .527.074.727.22.2.147.296.317.296.514l-.018 13.554c0 .194-.1.367-.3.514-.199.146-.441.217-.727.217h-1.818l-.003 1.391c0 .194-.1.367-.3.514-.2.146-.431.217-.695.217l-12.274-.01c-.264 0-.496-.075-.696-.221-.196-.146-.296-.316-.296-.514l.004-1.39-1.854-.004z" fill="#2EC6F5"/><path d="m11.864 9.299.003-1.738-4.738-.007v.755a.37.37 0 0 1-.135.279.47.47 0 0 1-.318.119H5.468a.488.488 0 0 1-.332-.119A.365.365 0 0 1 5 8.309V7.221a.37.37 0 0 1 .136-.279c.09-.078.2-.119.332-.119h.936V6c0-.105.043-.197.129-.279a.463.463 0 0 1 .325-.119l5.477.007c.122 0 .225.041.318.12.09.077.136.173.136.278v.755h.843c.132 0 .243.04.332.119.09.078.136.173.136.279l-.003 2.373c0 .116-.047.211-.136.286a.498.498 0 0 1-.332.116h-.936v.822c0 .116-.043.211-.13.293a.463.463 0 0 1-.324.119h-1.072l-.004 1.857c0 .115-.046.21-.136.285a.482.482 0 0 1-.317.112H9.412a.475.475 0 0 1-.326-.112.362.362 0 0 1-.128-.285l.003-2.109c0-.105.043-.197.129-.278a.463.463 0 0 1 .325-.12h.843v-.822c0-.116.047-.211.136-.286a.5.5 0 0 1 .332-.112h1.137zm-2.526 4.703a.283.283 0 0 0-.197.064.22.22 0 0 0-.075.173l-.004 1.381c0 .072.025.13.075.174.05.044.115.067.197.067l1.569.004c.082 0 .146-.02.196-.065a.22.22 0 0 0 .075-.173l.004-1.38a.22.22 0 0 0-.076-.174.285.285 0 0 0-.196-.068L9.338 14z" fill="#fff"/></svg>
